www/assets/icons/bloodtype.svg

<svg xmlns="http://www.w3.org/2000/svg" width="24" height="24" viewBox="0 0 24 24" fill='currentColor'><path d="M12 2c-5.33 4.55-8 8.48-8 11.8 0 4.98 3.8 8.2 8 8.2s8-3.22 8-8.2c0-3.32-2.67-7.25-8-11.8m3 16H9v-2h6zm0-5h-2v2h-2v-2H9v-2h2V9h2v2h2z"/></svg>

<svg width="24" height="24" viewBox="0 0 24 24" xmlns="http://www.w3.org/2000/svg" fill='currentColor'><path d="M12 2C6.67 6.55 4 10.48 4 13.8C4 18.78 7.8 22 12 22C16.2 22 20 18.78 20 13.8C20 10.48 17.33 6.55 12 2ZM15 18H9V16H15V18ZM15 13H13V15H11V13H9V11H11V9H13V11H15V13Z"/></svg>
